svg/city_worker_outline.svg

<?xml version="1.0" encoding="UTF-8" standalone="no"?>
<!-- Created with Inkscape (http://www.inkscape.org/) -->
<svg id="svg8" xmlns:rdf="http://www.w3.org/1999/02/22-rdf-syntax-ns#" xmlns="http://www.w3.org/2000/svg" xmlns:osb="http://www.openswatchbook.org/uri/2009/osb" height="48" width="48" version="1.1" xmlns:cc="http://creativecommons.org/ns#" viewBox="0 0 12.7 12.7" xmlns:dc="http://purl.org/dc/elements/1.1/">
 <title id="title4753">UIO-icon</title>
 <metadata id="metadata5">
  <rdf:RDF>
   <cc:Work rdf:about="">
    <dc:format>image/svg+xml</dc:format>
    <dc:type rdf:resource="http://purl.org/dc/dcmitype/StillImage"/>
    <dc:title>UIO-icon</dc:title>
    <dc:creator>
     <cc:Agent>
      <dc:title>Joaquín Urbano</dc:title>
     </cc:Agent>
    </dc:creator>
    <dc:rights>
     <cc:Agent>
      <dc:title>GPL</dc:title>
     </cc:Agent>
    </dc:rights>
   </cc:Work>
  </rdf:RDF>
 </metadata>
 <g id="layer1" transform="translate(0,-284.3)" fill="#333">
  <path id="path1933" d="m23.471 4.9746c-7.0398 0.019502-8.1335 4.1161-8.0742 12.484 0.00878 0.54343 0.022609 1.8203 1.1406 2.0684 0.031019 2.8544 0.59312 4.4879 1.9922 5.4316 2.09 1.3157 3.1271 2.1809 4.9668 2.2383 1.2599 0.00378 2.871-1.135 4.6094-2.2227 1.5631-0.97806 2.3594-3.0259 2.3594-5.0996-0.0005631-0.082031-0.001348-0.16406-0.001953-0.24609 1.1776 0.020107 0.96733-1.3673 1.0703-2.1699 0.039-9.3728-1.147-12.475-8.034-12.483h-0.001953c-0.009913-0.000054047-0.017882 0.000001512-0.027344 0zm-0.225 0.5176c2.0504-0.080345 3.4632 0.21479 4.5137 0.72266 2.0821 1.0421 2.4621 3.0121 2.6914 3.7422 0.19559 0.93276 0.34785 1.8757 0.42578 2.8379 0.060476 0.58607 0.084111 1.1737 0.10352 1.7598l0.039062 2.9062c0.047197 1.2954-0.19448 1.6772-0.5625 1.6543l-0.015625-3.6191c-0.039167-0.88759-0.07802-1.758-0.11719-2.6719-0.0866-0.64974-0.33565-0.75978-0.7168-0.4375l-0.294 0.127c-1.9817 1.226-3.9836-1.1653-6.3848-3.5957-0.052231 0.92469-0.045814 2.0847-0.66797 2.6387-0.57529 0.47707-1.5105 0.52684-2.3965 0.63672-1.1616 0.27572-2.2891 0.62934-2.8438 2.2637-0.39578 1.0366-0.3956 1.7134-0.48633 2.4727l-0.003906 2.084c-0.27856-0.15593-0.57115-0.24891-0.62109-1.4336l0.027344-2.7441 0.21289-2.7891c0.10585-0.96701 0.47125-2.1727 0.95898-3.4922 0.70265-1.3932 1.6206-2.1001 2.6465-2.4648 0.96541-0.24715 1.6176-0.57091 3.4922-0.59766zm0.11328 4.5918c2.26 2.2699 3.8925 4.0739 6.4512 2.7715 0.13851 2.238 0.16984 4.4407 0.13672 6.7168 0 1.8753-0.63336 4.0318-2.0469 4.916-1.572 0.98365-3.2259 2.1971-4.3652 2.1934-1.6637-0.047622-2.946-1.0229-4.8359-2.2129-1.335-0.84099-1.6652-2.9881-1.6602-4.873l0.007813-2.9883c0.72482-6.6209 5.8366-1.7816 6.3125-6.5234zm-2.8672 5.8574c-0.43897 0.00011339-0.79482 0.35602-0.79492 0.79492 0.0000982 0.43894 0.35597 0.79481 0.79492 0.79492 0.43897-0.00011339 0.79482-0.35605 0.79492-0.79492-0.00009831-0.43898-0.35597-0.79481-0.79492-0.79492zm5.9688 0c-0.43897 0.00011339-0.79483 0.35602-0.79492 0.79492 0.00009447 0.43894 0.35593 0.79481 0.79492 0.79492 0.43897-0.00011339 0.79482-0.35605 0.79492-0.79492-0.0000982-0.43898-0.35597-0.79481-0.79492-0.79492zm-3.035 3.668c-0.37814 0.00378-0.67004 0.070579-0.66602 0.14844 0.002 0.080882 0.32239 0.14687 0.7168 0.14648 0.39441 0.00003769 0.71477-0.06561 0.7168-0.14648 0.003201-0.082016-0.31865-0.14844-0.7168-0.14844-0.017008-0.00011339-0.034002-0.00011339-0.050781 0zm2.9551 2.2617c-0.00007555 0.00041575-0.011341 0.001424-0.011719 0.001953 0.00011714 0.00037785 0.011719-0.00041575 0.011719 0zm-0.011719 0.001953c-0.015874-0.053669-1.2268 0.071175-2.7285 0.2832-0.06444 0.007559-0.12896 0.019785-0.19336 0.027344-1.4369 0.2075-2.5416 0.40995-2.5215 0.46094 0.026079 0.052158 1.2485-0.077416 2.7422-0.28906 1.4821-0.21014 2.6733-0.42369 2.7012-0.48242zm3.943 5.561-4.054 10.711c0.006024-0.041031 0.009202-0.056374 0.015625-0.099609-0.906-3.04-1.743-5.967-1.743-5.967 0.45503-1.2894 0.9686-2.6026 0.60547-3.5527-1.0062 0.40275-2.0114 0.47227-3.0176 0.050781-0.50702 0.95897 0.38473 2.3863 0.85742 3.6719l-1.8281 7.3496-4.5039-11.898 0.027344-0.24805-0.10938 0.029297-0.48242 0.17578 0.003906 0.009766c-0.70769 0.26953-1.4063 0.55706-2.1035 0.85938l-2.6523 1.1484c-0.97219 0.4165-1.9726 0.83023-3.0684 1.2109-2.5451 0.74956-2.5449 2.867-2.5449 4.0195v6.6621h35.572v-6.6621c0-1.1525 0.00016284-3.2682-2.5449-4.0195-1.2109-0.42077-2.3081-0.88043-3.373-1.3418l-2.652-1.149c-0.637-0.274-1.28-0.526-1.928-0.77l0.005859-0.013672zm0.29883 0.66211c0.1864 0.073414 0.78273 0.30785 1.2715 0.50586 0.24854 0.10069 0.31641 0.12891 0.31641 0.12891l0.51758 0.22461 2.6523 1.1484 0.50977 0.2207 2.6328 1.0254c1.2836 0.41857 2.3331 1.0986 2.2559 3.043l0.003906 6.6602h-15.065zm-14.354 0.03125 4.8926 12.926h-14.923l0.0078-6.631v-0.32c0.1998-1.066 0.3434-2.147 2.2051-2.747 0.9692-0.36 1.9345-0.729 2.8885-1.126l2.6523-1.1484c0.77803-0.3394 1.5521-0.66662 2.2773-0.95312z" transform="matrix(.26458 0 0 .26458 0 284.3)"/>
 </g>
</svg>

<svg width="48" height="48" viewBox="0 0 48 48" fill="none" xmlns="http://www.w3.org/2000/svg">
<path d="M23.4706 4.97461C16.4309 4.99411 15.3372 9.09066 15.3965 17.4585C15.4053 18.0019 15.4191 19.2787 16.5371 19.5268C16.5681 22.3812 17.1302 24.0147 18.5293 24.9584C20.6192 26.274 21.6563 27.1392 23.496 27.1966C24.7559 27.2004 26.367 26.0616 28.1054 24.974C29.6684 23.9959 30.4647 21.9481 30.4647 19.8744C30.4642 19.7924 30.4634 19.7104 30.4628 19.6283C31.6404 19.6484 31.4301 18.2611 31.5331 17.4585C31.5721 8.08578 30.3861 4.98362 23.4992 4.97562H23.4972C23.4873 4.97557 23.4793 4.97562 23.4699 4.97562L23.4706 4.97461ZM23.2456 5.4922C25.296 5.41186 26.7088 5.70699 27.7593 6.21485C29.8413 7.25694 30.2213 9.22692 30.4506 9.95701C30.6462 10.8898 30.7985 11.8327 30.8764 12.7949C30.9369 13.3809 30.9605 13.9686 30.9799 14.5546L31.019 17.4608C31.0662 18.7562 30.8245 19.138 30.4565 19.1151L30.4409 15.496C30.4017 14.6085 30.3628 13.7381 30.3237 12.8242C30.2371 12.1744 29.988 12.0644 29.6069 12.3867L29.3129 12.5137C27.3312 13.7397 25.3293 11.3484 22.9282 8.91802C22.8759 9.8427 22.8823 11.0027 22.2602 11.5567C21.6849 12.0338 20.7497 12.0835 19.8637 12.1934C18.7021 12.4691 17.5747 12.8227 17.02 14.4571C16.6242 15.4937 16.6244 16.1705 16.5336 16.9297L16.5297 19.0137C16.2512 18.8578 15.9586 18.7648 15.9087 17.5801L15.936 14.8361L16.1489 12.047C16.2547 11.08 16.6201 9.87433 17.1079 8.55485C17.8105 7.16166 18.7284 6.45477 19.7543 6.09008C20.7197 5.84293 21.3719 5.51917 23.2465 5.49242L23.2456 5.4922ZM23.3589 10.0839C25.6189 12.3538 27.2513 14.1578 29.81 12.8554C29.9485 15.0934 29.9798 17.2961 29.9467 19.5721C29.9467 21.4474 29.3134 23.6039 27.8999 24.4881C26.3279 25.4717 24.674 26.6851 23.5347 26.6814C21.871 26.6338 20.5887 25.6586 18.6989 24.4686C17.3639 23.6276 17.0337 21.4805 17.0387 19.5956L17.0465 16.6074C17.7713 9.98655 22.883 14.8258 23.3589 10.084V10.0839ZM20.4917 15.9413C20.0528 15.9414 19.6969 16.2973 19.6968 16.7362C19.6969 17.1751 20.0528 17.531 20.4917 17.5311C20.9307 17.531 21.2865 17.175 21.2866 16.7362C21.2865 16.2972 20.9307 15.9414 20.4917 15.9413ZM26.4605 15.9413C26.0215 15.9414 25.6656 16.2973 25.6655 16.7362C25.6656 17.1751 26.0215 17.531 26.4605 17.5311C26.8994 17.531 27.2553 17.175 27.2554 16.7362C27.2553 16.2972 26.8994 15.9414 26.4605 15.9413ZM23.4255 19.6092C23.0474 19.613 22.7555 19.6798 22.7595 19.7577C22.7615 19.8385 23.0819 19.9045 23.4763 19.9041C23.8707 19.9042 24.191 19.8385 24.1931 19.7577C24.1963 19.6756 23.8744 19.6092 23.4763 19.6092C23.4593 19.6091 23.4423 19.6091 23.4255 19.6092ZM26.3806 21.8709C26.3805 21.8713 26.3692 21.8723 26.3688 21.8729C26.369 21.8732 26.3806 21.8724 26.3806 21.8729V21.8709ZM26.3688 21.8729C26.353 21.8192 25.142 21.944 23.6404 22.156C23.5759 22.1636 23.5114 22.1758 23.447 22.1834C22.0101 22.3909 20.9054 22.5933 20.9255 22.6443C20.9516 22.6965 22.174 22.5669 23.6677 22.3553C25.1498 22.1451 26.341 21.9316 26.3689 21.8729H26.3688ZM30.3118 27.4338L26.2578 38.1447C26.2639 38.1036 26.267 38.0883 26.2735 38.045C25.3675 35.0051 24.5305 32.0781 24.5305 32.0781C24.9855 30.7887 25.4991 29.4755 25.1359 28.5255C24.1298 28.9282 23.1246 28.9977 22.1184 28.5762C21.6114 29.5352 22.5031 30.9625 22.9758 32.2481L21.1477 39.5976L16.6439 27.6998L16.6712 27.4517L16.5618 27.481L16.0794 27.6568L16.0833 27.6665C15.3756 27.9361 14.677 28.2236 13.9799 28.5259L11.3276 29.6743C10.3554 30.0908 9.35501 30.5045 8.25922 30.8852C5.71416 31.6347 5.71436 33.7521 5.71436 34.9046V41.5667H41.2859V34.9046C41.2859 33.7521 41.2861 31.6365 38.741 30.8852C37.5302 30.4644 36.433 30.0048 35.3681 29.5434L32.7161 28.3944C32.0791 28.1204 31.4361 27.8684 30.7881 27.6244L30.794 27.6108L30.3118 27.4338ZM30.6106 28.0959C30.797 28.1693 31.3933 28.4037 31.8821 28.6017C32.1306 28.7024 32.1985 28.7306 32.1985 28.7306L32.7161 28.9553L35.3683 30.1036L35.8781 30.3243L38.5109 31.3497C39.7945 31.7683 40.8439 32.4483 40.7667 34.3927L40.7706 41.0528H25.7058L30.6106 28.0959ZM16.2568 28.1271L21.1493 41.053H6.22651L6.23431 34.4221V34.1021C6.43411 33.0361 6.57771 31.9551 8.43939 31.3551C9.40857 30.9951 10.3739 30.6261 11.3278 30.2291L13.9801 29.0807C14.7581 28.7413 15.5322 28.4141 16.2574 28.1276L16.2568 28.1271Z" fill="#333333"/>
</svg>
